; generated by Slic3r 1.2.9 on 2016-02-07 at 17:38:56

; external perimeters extrusion width = 0.40mm
; perimeters extrusion width = 0.40mm
; infill extrusion width = 0.40mm
; solid infill extrusion width = 0.40mm
; top infill extrusion width = 0.40mm

M107
M83
T0
M116


G21 ; set units to millimeters
G90 ; use absolute coordinates
M83 ; use relative distances for extrusion
G1 E-3.20000 F3000.00000
G1 Z0.400 F15000.000
G1 X0.000 Y-8.398 F15000.000
G1 Z0.350 F15000.000
G1 E3.20000 F3000.00000
G1 X26.898 Y-8.398 E2.22084 F840.000
G1 X29.201 Y-8.001 E0.19292
G1 X31.237 Y-6.856 E0.19292 F840.000
G1 X32.773 Y-5.094 E0.19292
G1 X33.629 Y-2.920 E0.19292
G1 X33.773 Y-1.523 E0.11594
G1 X33.773 Y1.677 E0.26421
G1 X33.376 Y3.979 E0.19292
G1 X32.230 Y6.016 E0.19292
G1 X30.469 Y7.551 E0.19292
G1 X28.295 Y8.408 E0.19292
G1 X26.898 Y8.551 E0.11594
G1 X-29.002 Y8.551 E4.61541
G1 X-31.305 Y8.154 E0.19292
G1 X-33.341 Y7.009 E0.19292
G1 X-34.877 Y5.247 E0.19292
G1 X-35.733 Y3.074 E0.19292
G1 X-35.877 Y1.677 E0.11594
G1 X-35.877 Y-1.523 E0.26421
G1 X-35.480 Y-3.826 E0.19292
G1 X-34.334 Y-5.863 E0.19292
G1 X-32.573 Y-7.398 E0.19292
G1 X-30.399 Y-8.255 E0.19292
G1 X-29.002 Y-8.398 E0.11594
G1 X-0.060 Y-8.398 E2.38962
G1 X0.000 Y-7.773 F15000.000
G1 X26.898 Y-7.773 E2.22084 F840.000
G1 X29.089 Y-7.376 E0.18388
G1 X31.003 Y-6.236 E0.18388 F840.000
G1 X32.394 Y-4.498 E0.18388
G1 X33.148 Y-1.523 E0.25334
G1 X33.148 Y1.677 E0.26421
G1 X32.751 Y3.868 E0.18388
G1 X31.611 Y5.781 E0.18388
G1 X29.872 Y7.173 E0.18388
G1 X26.898 Y7.926 E0.25334
G1 X-29.002 Y7.926 E4.61541
G1 X-31.193 Y7.530 E0.18388
G1 X-33.107 Y6.390 E0.18388
G1 X-34.499 Y4.651 E0.18388
G1 X-35.252 Y1.677 E0.25334
G1 X-35.252 Y-1.523 E0.26421
G1 X-34.855 Y-3.715 E0.18388
G1 X-33.715 Y-5.628 E0.18388
G1 X-31.977 Y-7.020 E0.18388
G1 X-29.002 Y-7.773 E0.25334
G1 X-0.060 Y-7.773 E2.38962
G1 X0.000 Y-7.148 F15000.000
G1 X26.898 Y-7.148 E2.22084 F840.000
G1 X28.972 Y-6.752 E0.17437
G1 X30.754 Y-5.618 E0.17437 F840.000
G1 X31.992 Y-3.908 E0.17437
G1 X32.523 Y-1.523 E0.20167
G1 X32.523 Y1.677 E0.26421
G1 X32.126 Y3.751 E0.17437
G1 X30.993 Y5.533 E0.17437
G1 X29.282 Y6.771 E0.17437
G1 X26.898 Y7.302 E0.20167
G1 X-29.002 Y7.302 E4.61541
G1 X-31.076 Y6.905 E0.17437
G1 X-32.858 Y5.772 E0.17437
G1 X-34.097 Y4.061 E0.17437
G1 X-34.627 Y1.677 E0.20167
G1 X-34.627 Y-1.523 E0.26421
G1 X-34.231 Y-3.598 E0.17437
G1 X-33.097 Y-5.380 E0.17437
G1 X-31.386 Y-6.618 E0.17437
G1 X-29.002 Y-7.148 E0.20167
G1 X-0.060 Y-7.148 E2.38962
G1 X0.000 Y-5.585 F15000.000
G1 X28.580 Y-5.585 E2.35975 F840.000
G1 X30.960 Y-3.206 E0.27782
G1 X30.960 Y3.359 E0.54203 F840.000
G1 X28.580 Y5.738 E0.27782
G1 X-30.685 Y5.738 E4.89324
G1 X-33.064 Y3.359 E0.27782
G1 X-33.064 Y-3.206 E0.54203
G1 X-30.685 Y-5.585 E0.27782
G1 X-0.060 Y-5.585 E2.52853
G1 X0.000 Y-4.960 F15000.000
G1 X28.322 Y-4.960 E2.33838 F840.000
G1 X30.335 Y-2.947 E0.23508 F840.000
G1 X30.335 Y3.100 E0.49929
G1 X28.322 Y5.114 E0.23508
G1 X-30.426 Y5.114 E4.85050
G1 X-32.439 Y3.100 E0.23508
G1 X-32.439 Y-2.947 E0.49929
G1 X-30.426 Y-4.960 E0.23508
G1 X-0.060 Y-4.960 E2.50716
G1 X0.000 Y-4.335 F15000.000
G1 X28.063 Y-4.335 E2.31701 F840.000
G1 X29.710 Y-2.688 E0.19234
G1 X29.710 Y2.841 E0.45655 F840.000
G1 X28.063 Y4.489 E0.19234
G1 X-30.167 Y4.489 E4.80775
G1 X-31.814 Y2.841 E0.19234
G1 X-31.814 Y-2.688 E0.45655
G1 X-30.167 Y-4.335 E0.19234
G1 X-0.060 Y-4.335 E2.48579
G1 X0.000 Y-3.710 F15000.000
G1 X27.804 Y-3.710 E2.29564 F840.000
G1 X29.085 Y-2.429 E0.14960 F840.000
G1 X29.085 Y2.583 E0.41381
G1 X27.804 Y3.864 E0.14960
G1 X-29.908 Y3.864 E4.76501
G1 X-31.189 Y2.583 E0.14960
G1 X-31.189 Y-2.429 E0.41381
G1 X-29.908 Y-3.710 E0.14960
G1 X-0.060 Y-3.710 E2.46442
G1 X0.000 Y-3.086 F15000.000
G1 X27.545 Y-3.086 E2.27427 F840.000
G1 X28.460 Y-2.170 E0.10686
G1 X28.460 Y2.324 E0.37106 F840.000
G1 X27.545 Y3.239 E0.10686
G1 X-29.649 Y3.239 E4.72227
G1 X-30.564 Y2.324 E0.10686
G1 X-30.564 Y-2.170 E0.37106
G1 X-29.649 Y-3.086 E0.10686
G1 X-0.060 Y-3.086 E2.44304
G1 X0.000 Y-2.461 F15000.000
G1 X27.286 Y-2.461 E2.25290 F840.000
G1 X27.835 Y-1.912 E0.06411 F840.000
G1 X27.835 Y2.065 E0.32832
G1 X27.286 Y2.614 E0.06411
G1 X-29.390 Y2.614 E4.67953
G1 X-29.939 Y2.065 E0.06411
G1 X-29.939 Y-1.912 E0.32832
G1 X-29.390 Y-2.461 E0.06411
G1 X-0.060 Y-2.461 E2.42167
G1 E-3.20000 F3000.00000
G1 Z0.750 F15000.000
G1 X27.210 Y-1.653 F15000.000
G1 Z0.350 F15000.000
G1 E3.20000 F3000.00000
G1 X27.210 Y1.806 E0.28558 F840.000
G1 X27.027 Y1.989 E0.02137
G1 X-29.131 Y1.989 E4.63678
G1 X-29.315 Y1.806 E0.02137
G1 X-29.315 Y-1.653 E0.28558
G1 X-29.131 Y-1.836 E0.02137
G1 X27.027 Y-1.836 E4.63678
G1 X27.168 Y-1.695 E0.01642
G1 E-3.20000 F3000.00000
G1 Z0.750 F15000.000
G1 X-28.027 Y-0.549 F15000.000
G1 Z0.350 F15000.000
G1 E3.20000 F3000.00000
G1 X25.923 Y-0.549 E4.45443 F840.000
G1 X25.923 Y0.702 E0.10323
G1 X-28.027 Y0.702 E4.45443
G1 X-28.027 Y-0.489 E0.09827
G1 X-28.652 Y-1.173 F15000.000
G1 X26.548 Y-1.173 E4.55762 F840.000
G1 X26.548 Y1.327 E0.20641
G1 X-28.652 Y1.327 E4.55762
G1 X-28.652 Y-1.113 E0.20146
G1 X-28.306 Y-0.973 F15000.000
G1 X-27.715 Y0.077 F15000.000
G1 X25.611 Y0.077 E9.33487 F840.000
G1 E-3.20000 F3000.00000
G1 Z0.750 F15000.000
G1 X-28.131 Y-0.652 F15000.000
G1 Z0.650 F15000.000
G1 E3.20000 F3000.00000
G1 X26.027 Y-0.652 E2.05852 F2400.000
G1 X26.027 Y0.805 E0.05540
G1 X-28.131 Y0.805 E2.05852
G1 X-28.131 Y-0.592 E0.05312
G1 X-28.466 Y-0.988 F15000.000
G1 X26.362 Y-0.988 E2.08403 F2400.000
G1 X26.362 Y1.141 E0.08091
G1 X-28.466 Y1.141 E2.08403
G1 X-28.466 Y-0.928 E0.07863
G1 X-28.802 Y-1.323 F15000.000
G1 X26.698 Y-1.323 E2.10955 F2400.000
G1 X26.698 Y1.477 E0.10643
G1 X-28.802 Y1.477 E2.10955
G1 X-28.802 Y-1.263 E0.10415
G1 X-28.456 Y-1.123 F15000.000
G1 X-27.754 Y-0.458 F15000.000
G1 X-27.937 Y-0.276 E0.00987 F2400.000
G1 X-27.937 Y0.202 E0.01829
G1 X-27.277 Y-0.458 E0.03573
G1 X-26.799 Y-0.458 E0.01829
G1 X-27.868 Y0.611 E0.05787
G1 X-27.390 Y0.611 E0.01829
G1 X-26.321 Y-0.458 E0.05787
G1 X-25.843 Y-0.458 E0.01829
G1 X-26.912 Y0.611 E0.05787
G1 X-26.435 Y0.611 E0.01829
G1 X-25.365 Y-0.458 E0.05787
G1 X-24.887 Y-0.458 E0.01829
G1 X-25.957 Y0.611 E0.05787
G1 X-25.479 Y0.611 E0.01829
G1 X-24.410 Y-0.458 E0.05787
G1 X-23.932 Y-0.458 E0.01829
G1 X-25.001 Y0.611 E0.05787
G1 X-24.523 Y0.611 E0.01829
G1 X-23.454 Y-0.458 E0.05787
G1 X-22.976 Y-0.458 E0.01829
G1 X-24.045 Y0.611 E0.05787
G1 X-23.568 Y0.611 E0.01829
G1 X-22.498 Y-0.458 E0.05787
G1 X-22.020 Y-0.458 E0.01829
G1 X-23.090 Y0.611 E0.05787
G1 X-22.612 Y0.611 E0.01829
G1 X-21.542 Y-0.458 E0.05787
G1 X-21.065 Y-0.458 E0.01829
G1 X-22.134 Y0.611 E0.05787
G1 X-21.656 Y0.611 E0.01829
G1 X-20.587 Y-0.458 E0.05787
G1 X-20.109 Y-0.458 E0.01829
G1 X-21.178 Y0.611 E0.05787
G1 X-20.701 Y0.611 E0.01829
G1 X-19.631 Y-0.458 E0.05787
G1 X-19.153 Y-0.458 E0.01829
G1 X-20.223 Y0.611 E0.05787
G1 X-19.745 Y0.611 E0.01829
G1 X-18.675 Y-0.458 E0.05787
G1 X-18.198 Y-0.458 E0.01829
G1 X-19.267 Y0.611 E0.05787
G1 X-18.789 Y0.611 E0.01829
G1 X-17.720 Y-0.458 E0.05787
G1 X-17.242 Y-0.458 E0.01829
G1 X-18.311 Y0.611 E0.05787
G1 X-17.833 Y0.611 E0.01829
G1 X-16.764 Y-0.458 E0.05787
G1 X-16.286 Y-0.458 E0.01829
G1 X-17.356 Y0.611 E0.05787
G1 X-16.878 Y0.611 E0.01829
G1 X-15.808 Y-0.458 E0.05787
G1 X-15.331 Y-0.458 E0.01829
G1 X-16.400 Y0.611 E0.05787
G1 X-15.922 Y0.611 E0.01829
G1 X-14.853 Y-0.458 E0.05787
G1 X-14.375 Y-0.458 E0.01829
G1 X-15.444 Y0.611 E0.05787
G1 X-14.966 Y0.611 E0.01829
G1 X-13.897 Y-0.458 E0.05787
G1 X-13.419 Y-0.458 E0.01829
G1 X-14.489 Y0.611 E0.05787
G1 X-14.011 Y0.611 E0.01829
G1 X-12.941 Y-0.458 E0.05787
G1 X-12.463 Y-0.458 E0.01829
G1 X-13.533 Y0.611 E0.05787
G1 X-13.055 Y0.611 E0.01829
G1 X-11.986 Y-0.458 E0.05787
G1 X-11.508 Y-0.458 E0.01829
G1 X-12.577 Y0.611 E0.05787
G1 X-12.099 Y0.611 E0.01829
G1 X-11.030 Y-0.458 E0.05787
G1 X-10.552 Y-0.458 E0.01829
G1 X-11.621 Y0.611 E0.05787
G1 X-11.144 Y0.611 E0.01829
G1 X-10.074 Y-0.458 E0.05787
G1 X-9.596 Y-0.458 E0.01829
G1 X-10.666 Y0.611 E0.05787
G1 X-10.188 Y0.611 E0.01829
G1 X-9.119 Y-0.458 E0.05787
G1 X-8.641 Y-0.458 E0.01829
G1 X-9.710 Y0.611 E0.05787
G1 X-9.232 Y0.611 E0.01829
G1 X-8.163 Y-0.458 E0.05787
G1 X-7.685 Y-0.458 E0.01829
G1 X-8.754 Y0.611 E0.05787
G1 X-8.277 Y0.611 E0.01829
G1 X-7.207 Y-0.458 E0.05787
G1 X-6.729 Y-0.458 E0.01829
G1 X-7.799 Y0.611 E0.05787
G1 X-7.321 Y0.611 E0.01829
G1 X-6.252 Y-0.458 E0.05787
G1 X-5.774 Y-0.458 E0.01829
G1 X-6.843 Y0.611 E0.05787
G1 X-6.365 Y0.611 E0.01829
G1 X-5.296 Y-0.458 E0.05787
G1 X-4.818 Y-0.458 E0.01829
G1 X-5.887 Y0.611 E0.05787
G1 X-5.410 Y0.611 E0.01829
G1 X-4.340 Y-0.458 E0.05787
G1 X-3.862 Y-0.458 E0.01829
G1 X-4.932 Y0.611 E0.05787
G1 X-4.454 Y0.611 E0.01829
G1 X-3.384 Y-0.458 E0.05787
G1 X-2.907 Y-0.458 E0.01829
G1 X-3.976 Y0.611 E0.05787
G1 X-3.498 Y0.611 E0.01829
G1 X-2.429 Y-0.458 E0.05787
G1 X-1.951 Y-0.458 E0.01829
G1 X-3.020 Y0.611 E0.05787
G1 X-2.542 Y0.611 E0.01829
G1 X-1.473 Y-0.458 E0.05787
G1 X-0.995 Y-0.458 E0.01829
G1 X-2.065 Y0.611 E0.05787
G1 X-1.587 Y0.611 E0.01829
G1 X-0.517 Y-0.458 E0.05787
G1 X-0.040 Y-0.458 E0.01829
G1 X-1.109 Y0.611 E0.05787
G1 X-0.631 Y0.611 E0.01829
G1 X0.438 Y-0.458 E0.05787
G1 X0.916 Y-0.458 E0.01829
G1 X-0.153 Y0.611 E0.05787
G1 X0.325 Y0.611 E0.01829
G1 X1.394 Y-0.458 E0.05787
G1 X1.872 Y-0.458 E0.01829
G1 X0.802 Y0.611 E0.05787
G1 X1.280 Y0.611 E0.01829
G1 X2.350 Y-0.458 E0.05787
G1 X2.828 Y-0.458 E0.01829
G1 X1.758 Y0.611 E0.05787
G1 X2.236 Y0.611 E0.01829
G1 X3.305 Y-0.458 E0.05787
G1 X3.783 Y-0.458 E0.01829
G1 X2.714 Y0.611 E0.05787
G1 X3.192 Y0.611 E0.01829
G1 X4.261 Y-0.458 E0.05787
G1 X4.739 Y-0.458 E0.01829
G1 X3.669 Y0.611 E0.05787
G1 X4.147 Y0.611 E0.01829
G1 X5.217 Y-0.458 E0.05787
G1 X5.695 Y-0.458 E0.01829
G1 X4.625 Y0.611 E0.05787
G1 X5.103 Y0.611 E0.01829
G1 X6.172 Y-0.458 E0.05787
G1 X6.650 Y-0.458 E0.01829
G1 X5.581 Y0.611 E0.05787
G1 X6.059 Y0.611 E0.01829
G1 X7.128 Y-0.458 E0.05787
G1 X7.606 Y-0.458 E0.01829
G1 X6.537 Y0.611 E0.05787
G1 X7.014 Y0.611 E0.01829
G1 X8.084 Y-0.458 E0.05787
G1 X8.562 Y-0.458 E0.01829
G1 X7.492 Y0.611 E0.05787
G1 X7.970 Y0.611 E0.01829
G1 X9.039 Y-0.458 E0.05787
G1 X9.517 Y-0.458 E0.01829
G1 X8.448 Y0.611 E0.05787
G1 X8.926 Y0.611 E0.01829
G1 X9.995 Y-0.458 E0.05787
G1 X10.473 Y-0.458 E0.01829
G1 X9.404 Y0.611 E0.05787
G1 X9.881 Y0.611 E0.01829
G1 X10.951 Y-0.458 E0.05787
G1 X11.429 Y-0.458 E0.01829
G1 X10.359 Y0.611 E0.05787
G1 X10.837 Y0.611 E0.01829
G1 X11.907 Y-0.458 E0.05787
G1 X12.384 Y-0.458 E0.01829
G1 X11.315 Y0.611 E0.05787
G1 X11.793 Y0.611 E0.01829
G1 X12.862 Y-0.458 E0.05787
G1 X13.340 Y-0.458 E0.01829
G1 X12.271 Y0.611 E0.05787
G1 X12.748 Y0.611 E0.01829
G1 X13.818 Y-0.458 E0.05787
G1 X14.296 Y-0.458 E0.01829
G1 X13.226 Y0.611 E0.05787
G1 X13.704 Y0.611 E0.01829
G1 X14.774 Y-0.458 E0.05787
G1 X15.251 Y-0.458 E0.01829
G1 X14.182 Y0.611 E0.05787
G1 X14.660 Y0.611 E0.01829
G1 X15.729 Y-0.458 E0.05787
G1 X16.207 Y-0.458 E0.01829
G1 X15.138 Y0.611 E0.05787
G1 X15.616 Y0.611 E0.01829
G1 X16.685 Y-0.458 E0.05787
G1 X17.163 Y-0.458 E0.01829
G1 X16.093 Y0.611 E0.05787
G1 X16.571 Y0.611 E0.01829
G1 X17.641 Y-0.458 E0.05787
G1 X18.118 Y-0.458 E0.01829
G1 X17.049 Y0.611 E0.05787
G1 X17.527 Y0.611 E0.01829
G1 X18.596 Y-0.458 E0.05787
G1 X19.074 Y-0.458 E0.01829
G1 X18.005 Y0.611 E0.05787
G1 X18.483 Y0.611 E0.01829
G1 X19.552 Y-0.458 E0.05787
G1 X20.030 Y-0.458 E0.01829
G1 X18.960 Y0.611 E0.05787
G1 X19.438 Y0.611 E0.01829
G1 X20.508 Y-0.458 E0.05787
G1 X20.986 Y-0.458 E0.01829
G1 X19.916 Y0.611 E0.05787
G1 X20.394 Y0.611 E0.01829
G1 X21.463 Y-0.458 E0.05787
G1 X21.941 Y-0.458 E0.01829
G1 X20.872 Y0.611 E0.05787
G1 X21.350 Y0.611 E0.01829
G1 X22.419 Y-0.458 E0.05787
G1 X22.897 Y-0.458 E0.01829
G1 X21.828 Y0.611 E0.05787
G1 X22.305 Y0.611 E0.01829
G1 X23.375 Y-0.458 E0.05787
G1 X23.853 Y-0.458 E0.01829
G1 X22.783 Y0.611 E0.05787
G1 X23.261 Y0.611 E0.01829
G1 X24.330 Y-0.458 E0.05787
G1 X24.808 Y-0.458 E0.01829
G1 X23.739 Y0.611 E0.05787
G1 X24.217 Y0.611 E0.01829
G1 X25.286 Y-0.458 E0.05787
G1 X25.764 Y-0.458 E0.01829
G1 X24.695 Y0.611 E0.05787
G1 X25.172 Y0.611 E0.01829
G1 X25.833 Y-0.049 E0.03573
G1 X25.833 Y0.429 E0.01829
G1 X25.650 Y0.611 E0.00987
G1 E-3.20000 F3000.00000
G1 Z1.050 F15000.000
G1 X-28.131 Y-0.652 F15000.000
G1 Z0.950 F15000.000
G1 E3.20000 F3000.00000
G1 X26.027 Y-0.652 E2.05852 F2400.000
G1 X26.027 Y0.805 E0.05540
G1 X-28.131 Y0.805 E2.05852
G1 X-28.131 Y-0.592 E0.05312
G1 X-28.466 Y-0.988 F15000.000
G1 X26.362 Y-0.988 E2.08403 F2400.000
G1 X26.362 Y1.141 E0.08091
G1 X-28.466 Y1.141 E2.08403
G1 X-28.466 Y-0.928 E0.07863
G1 X-28.802 Y-1.323 F15000.000
G1 X26.698 Y-1.323 E2.10955 F2400.000
G1 X26.698 Y1.477 E0.10643
G1 X-28.802 Y1.477 E2.10955
G1 X-28.802 Y-1.263 E0.10415
G1 X-28.456 Y-1.123 F15000.000
G1 X-22.065 Y-0.458 F15000.000
G1 X-20.995 Y0.611 E0.05748 F2400.000
G1 X-20.446 Y-0.458 E0.04570
G1 X-19.040 Y0.611 E0.06714
G1 X-12.572 Y-0.458 E0.24919
G1 X-11.503 Y0.611 E0.05748
G1 X-9.231 Y-0.458 E0.09543
G1 X-7.825 Y0.611 E0.06714
G1 X-3.079 Y-0.458 E0.18492
G1 X-2.010 Y0.611 E0.05748
G1 X1.984 Y-0.458 E0.15715
G1 X3.390 Y0.611 E0.06714
G1 X6.414 Y-0.458 E0.12191
G1 X7.483 Y0.611 E0.05748
G1 X13.199 Y-0.458 E0.22103
G1 X14.605 Y0.611 E0.06714
G1 X15.906 Y-0.458 E0.06403
G1 X16.976 Y0.611 E0.05748
G1 X25.820 Y0.611 E0.33615
G1 X24.414 Y-0.458 E0.06714
G1 X25.399 Y-0.458 E0.03745
G1 X25.833 Y-0.025 E0.02330
M106 S255
G1 E-3.20000 F3000.00000
G1 Z1.350 F15000.000
G1 X-28.131 Y-0.652 F15000.000
G1 Z1.250 F15000.000
G1 E3.20000 F3000.00000
G1 X26.027 Y-0.652 E2.05852 F2400.000
G1 X26.027 Y0.805 E0.05540
G1 X-28.131 Y0.805 E2.05852
G1 X-28.131 Y-0.592 E0.05312
G1 X-28.466 Y-0.988 F15000.000
G1 X26.362 Y-0.988 E2.08403 F2400.000
G1 X26.362 Y1.141 E0.08091
G1 X-28.466 Y1.141 E2.08403
G1 X-28.466 Y-0.928 E0.07863
G1 X-28.802 Y-1.323 F15000.000
G1 X26.698 Y-1.323 E2.10955 F2400.000
G1 X26.698 Y1.477 E0.10643
G1 X-28.802 Y1.477 E2.10955
G1 X-28.802 Y-1.263 E0.10415
G1 X-28.456 Y-1.123 F15000.000
G1 X-23.407 Y0.611 F15000.000
G1 X-22.585 Y-0.458 E0.05128 F2400.000
G1 X-22.065 Y0.611 E0.04520
G1 X-20.995 Y-0.458 E0.05748
G1 X-15.178 Y0.611 E0.22482
G1 X-14.355 Y-0.458 E0.05128
G1 X-12.572 Y0.611 E0.07904
G1 X-11.503 Y-0.458 E0.05748
G1 X-6.949 Y0.611 E0.17779
G1 X-6.126 Y-0.458 E0.05128
G1 X-3.079 Y0.611 E0.12275
G1 X-2.010 Y-0.458 E0.05748
G1 X1.280 Y0.611 E0.13149
G1 X2.103 Y-0.458 E0.05128
G1 X6.414 Y0.611 E0.16882
G1 X7.483 Y-0.458 E0.05748
G1 X9.509 Y0.611 E0.08708
G1 X10.332 Y-0.458 E0.05128
G1 X15.906 Y0.611 E0.21575
G1 X16.976 Y-0.458 E0.05748
G1 X17.738 Y0.611 E0.04992
G1 X18.561 Y-0.458 E0.05128
G1 X25.833 Y0.178 E0.27745
G1 X25.399 Y0.611 E0.02330
G1 E-3.20000 F3000.00000
G1 Z1.650 F15000.000
G1 X-28.131 Y-0.652 F15000.000
G1 Z1.550 F15000.000
G1 E3.20000 F3000.00000
G1 X26.027 Y-0.652 E2.05852 F2400.000
G1 X26.027 Y0.805 E0.05540
G1 X-28.131 Y0.805 E2.05852
G1 X-28.131 Y-0.592 E0.05312
G1 X-28.466 Y-0.988 F15000.000
G1 X26.362 Y-0.988 E2.08403 F2400.000
G1 X26.362 Y1.141 E0.08091
G1 X-28.466 Y1.141 E2.08403
G1 X-28.466 Y-0.928 E0.07863
G1 X-28.802 Y-1.323 F15000.000
G1 X26.698 Y-1.323 E2.10955 F2400.000
G1 X26.698 Y1.477 E0.10643
G1 X-28.802 Y1.477 E2.10955
G1 X-28.802 Y-1.263 E0.10415
G1 X-28.456 Y-1.123 F15000.000
G1 X-22.065 Y-0.458 F15000.000
G1 X-20.995 Y0.611 E0.05748 F2400.000
G1 X-20.446 Y-0.458 E0.04570
G1 X-19.040 Y0.611 E0.06714
G1 X-12.572 Y-0.458 E0.24919
G1 X-11.503 Y0.611 E0.05748
G1 X-9.231 Y-0.458 E0.09543
G1 X-7.825 Y0.611 E0.06714
G1 X-3.079 Y-0.458 E0.18492
G1 X-2.010 Y0.611 E0.05748
G1 X1.984 Y-0.458 E0.15715
G1 X3.390 Y0.611 E0.06714
G1 X6.414 Y-0.458 E0.12191
G1 X7.483 Y0.611 E0.05748
G1 X13.199 Y-0.458 E0.22103
G1 X14.605 Y0.611 E0.06714
G1 X15.906 Y-0.458 E0.06403
G1 X16.976 Y0.611 E0.05748
G1 X25.820 Y0.611 E0.33615
G1 X24.414 Y-0.458 E0.06714
G1 X25.399 Y-0.458 E0.03745
G1 X25.833 Y-0.025 E0.02330
G1 E-3.20000 F3000.00000
G1 Z1.950 F15000.000
G1 X-28.131 Y-0.652 F15000.000
G1 Z1.850 F15000.000
G1 E3.20000 F3000.00000
G1 X26.027 Y-0.652 E2.05852 F2400.000
G1 X26.027 Y0.805 E0.05540
G1 X-28.131 Y0.805 E2.05852
G1 X-28.131 Y-0.592 E0.05312
