; generated by Slic3r 1.2.9 on 2016-02-07 at 15:19:39

; external perimeters extrusion width = 0.40mm
; perimeters extrusion width = 0.40mm
; infill extrusion width = 0.40mm
; solid infill extrusion width = 0.40mm
; top infill extrusion width = 0.40mm

M107
M83
T0
M116


G21 ; set units to millimeters
G90 ; use absolute coordinates
M83 ; use relative distances for extrusion
G1 E-3.20000 F3000.00000
G1 Z0.400 F15000.000
G1 X29.075 Y0.000 F15000.000
G1 Z0.350 F15000.000
G1 E3.20000 F3000.00000
G1 X29.075 Y32.400 E2.67512 F840.000
G1 X28.680 Y34.044 E0.13963
G1 X27.583 Y35.331 E0.13963
G1 X25.450 Y36.025 E0.18518
G1 X-25.450 Y36.025 E4.20259
G1 X-27.094 Y35.630 E0.13963
G1 X-28.381 Y34.533 E0.13963
G1 X-29.075 Y32.400 E0.18518
G1 X-29.075 Y-32.400 E5.35025
G1 X-28.680 Y-34.044 E0.13963
G1 X-27.583 Y-35.331 E0.13963
G1 X-25.450 Y-36.025 E0.18518
G1 X25.450 Y-36.025 E4.20259
G1 X27.094 Y-35.630 E0.13963
G1 X28.381 Y-34.533 E0.13963 F840.000
G1 X29.075 Y-32.400 E0.18518
G1 X29.075 Y-0.060 E2.67017
G1 E-3.20000 F3000.00000
G1 Z0.750 F15000.000
G1 X-2.250 Y-30.800 F15000.000
G1 Z0.350 F15000.000
G1 E3.20000 F3000.00000
G1 X-2.250 Y30.800 E5.08607 F840.000
G1 X-23.850 Y30.800 E1.78345
G1 X-23.850 Y-30.800 E5.08607
G1 X-2.310 Y-30.800 E1.77850
G1 X-1.625 Y-31.425 F15000.000
G1 X-1.625 Y31.425 E5.18926 F840.000
G1 X-24.475 Y31.425 E1.88664
G1 X-24.475 Y-31.425 E5.18926
G1 X-1.685 Y-31.425 E1.88169
G1 X-1.000 Y-32.050 F15000.000
G1 X-1.000 Y32.050 E5.29245 F840.000
G1 X-25.100 Y32.050 E1.98983
G1 X-25.100 Y-32.050 E5.29245
G1 X-1.060 Y-32.050 E1.98488
G1 X-1.200 Y-31.704 F15000.000
G1 E-3.20000 F3000.00000
G1 Z0.750 F15000.000
G1 X2.250 Y-30.800 F15000.000
G1 Z0.350 F15000.000
G1 E3.20000 F3000.00000
G1 X23.850 Y-30.800 E1.78345 F840.000
G1 X23.850 Y30.800 E5.08607
G1 X2.250 Y30.800 E1.78345
G1 X2.250 Y-30.740 E5.08112
G1 X1.625 Y-31.425 F15000.000
G1 X24.475 Y-31.425 E1.88664 F840.000
G1 X24.475 Y31.425 E5.18926
G1 X1.625 Y31.425 E1.88664
G1 X1.625 Y-31.365 E5.18431
G1 X1.000 Y-32.050 F15000.000
G1 X25.100 Y-32.050 E1.98983 F840.000
G1 X25.100 Y32.050 E5.29245
G1 X1.000 Y32.050 E1.98983
G1 X1.000 Y-31.990 E5.28750
G1 X1.346 Y-31.850 F15000.000
G1 E-3.20000 F3000.00000
G1 Z0.750 F15000.000
G1 X-2.628 Y-30.117 F15000.000
G1 Z0.350 F15000.000
G1 E3.20000 F3000.00000
G1 X-2.933 Y-30.422 E0.03592 F840.000
G1 X-3.824 Y-30.422 E0.07416
G1 X-2.628 Y-29.226 E0.14080
G1 X-2.628 Y-28.335 E0.07416
G1 X-4.715 Y-30.422 E0.24568
G1 X-5.606 Y-30.422 E0.07416
G1 X-2.628 Y-27.444 E0.35057
G1 X-2.628 Y-26.553 E0.07416
G1 X-6.497 Y-30.422 E0.45545
G1 X-7.388 Y-30.422 E0.07416
G1 X-2.628 Y-25.662 E0.56033
G1 X-2.628 Y-24.771 E0.07416
G1 X-8.279 Y-30.422 E0.66521
G1 X-9.170 Y-30.422 E0.07416
G1 X-2.628 Y-23.880 E0.77009
G1 X-2.628 Y-22.989 E0.07416
G1 X-10.061 Y-30.422 E0.87498
G1 X-10.952 Y-30.422 E0.07416
G1 X-2.628 Y-22.098 E0.97986
G1 X-2.628 Y-21.207 E0.07416
G1 X-11.843 Y-30.422 E1.08474
G1 X-12.734 Y-30.422 E0.07416
G1 X-2.628 Y-20.316 E1.18962
G1 X-2.628 Y-19.425 E0.07416
G1 X-13.625 Y-30.422 E1.29450
G1 X-14.516 Y-30.422 E0.07416
G1 X-2.628 Y-18.534 E1.39939
G1 X-2.628 Y-17.643 E0.07416
G1 X-15.407 Y-30.422 E1.50427
G1 X-16.298 Y-30.422 E0.07416
G1 X-2.628 Y-16.752 E1.60915
G1 X-2.628 Y-15.861 E0.07416
G1 X-17.189 Y-30.422 E1.71403
G1 X-18.080 Y-30.422 E0.07416
G1 X-2.628 Y-14.970 E1.81892
G1 X-2.628 Y-14.079 E0.07416
G1 X-18.971 Y-30.422 E1.92380
G1 X-19.862 Y-30.422 E0.07416
G1 X-2.628 Y-13.188 E2.02868
G1 X-2.628 Y-12.298 E0.07416
G1 X-20.752 Y-30.422 E2.13356
G1 X-21.643 Y-30.422 E0.07416
G1 X-2.628 Y-11.407 E2.23844
G1 X-2.628 Y-10.516 E0.07416
G1 X-22.534 Y-30.422 E2.34333
G1 X-23.425 Y-30.422 E0.07416
G1 X-2.628 Y-9.625 E2.44821
G1 X-2.628 Y-8.734 E0.07416
G1 X-23.472 Y-29.577 E2.45366
G1 X-23.472 Y-28.686 E0.07416
G1 X-2.628 Y-7.843 E2.45366
G1 X-2.628 Y-6.952 E0.07416
G1 X-23.472 Y-27.795 E2.45366
G1 X-23.472 Y-26.904 E0.07416
G1 X-2.628 Y-6.061 E2.45366
G1 X-2.628 Y-5.170 E0.07416
G1 X-23.472 Y-26.013 E2.45366
G1 X-23.472 Y-25.122 E0.07416
G1 X-2.628 Y-4.279 E2.45366
G1 X-2.628 Y-3.388 E0.07416
G1 X-23.472 Y-24.231 E2.45366
G1 X-23.472 Y-23.340 E0.07416
G1 X-2.628 Y-2.497 E2.45366
G1 X-2.628 Y-1.606 E0.07416
G1 X-23.472 Y-22.449 E2.45366
G1 X-23.472 Y-21.558 E0.07416
G1 X-2.628 Y-0.715 E2.45366
G1 X-2.628 Y0.176 E0.07416
G1 X-23.472 Y-20.668 E2.45366
G1 X-23.472 Y-19.777 E0.07416
G1 X-2.628 Y1.067 E2.45366
G1 X-2.628 Y1.958 E0.07416
G1 X-23.472 Y-18.886 E2.45366
G1 X-23.472 Y-17.995 E0.07416
G1 X-2.628 Y2.849 E2.45366
G1 X-2.628 Y3.740 E0.07416
G1 X-23.472 Y-17.104 E2.45366
G1 X-23.472 Y-16.213 E0.07416
G1 X-2.628 Y4.630 E2.45366
G1 X-2.628 Y5.521 E0.07416
G1 X-23.472 Y-15.322 E2.45366
G1 X-23.472 Y-14.431 E0.07416
G1 X-2.628 Y6.412 E2.45366
G1 X-2.628 Y7.303 E0.07416
G1 X-23.472 Y-13.540 E2.45366
G1 X-23.472 Y-12.649 E0.07416
G1 X-2.628 Y8.194 E2.45366
G1 X-2.628 Y9.085 E0.07416
G1 X-23.472 Y-11.758 E2.45366
G1 X-23.472 Y-10.867 E0.07416
G1 X-2.628 Y9.976 E2.45366
G1 X-2.628 Y10.867 E0.07416
G1 X-23.472 Y-9.976 E2.45366
G1 X-23.472 Y-9.085 E0.07416
G1 X-2.628 Y11.758 E2.45366
G1 X-2.628 Y12.649 E0.07416
G1 X-23.472 Y-8.194 E2.45366
G1 X-23.472 Y-7.303 E0.07416
G1 X-2.628 Y13.540 E2.45366
G1 X-2.628 Y14.431 E0.07416
G1 X-23.472 Y-6.412 E2.45366
G1 X-23.472 Y-5.521 E0.07416
G1 X-2.628 Y15.322 E2.45366
G1 X-2.628 Y16.213 E0.07416
G1 X-23.472 Y-4.630 E2.45366
G1 X-23.472 Y-3.740 E0.07416
G1 X-2.628 Y17.104 E2.45366
G1 X-2.628 Y17.995 E0.07416
G1 X-23.472 Y-2.849 E2.45366
G1 X-23.472 Y-1.958 E0.07416
G1 X-2.628 Y18.886 E2.45366
G1 X-2.628 Y19.777 E0.07416
G1 X-23.472 Y-1.067 E2.45366
G1 X-23.472 Y-0.176 E0.07416
G1 X-2.628 Y20.668 E2.45366
G1 X-2.628 Y21.559 E0.07416
G1 X-23.472 Y0.715 E2.45366
G1 X-23.472 Y1.606 E0.07416
G1 X-2.628 Y22.449 E2.45366
G1 X-2.628 Y23.340 E0.07416
G1 X-23.472 Y2.497 E2.45366
G1 X-23.472 Y3.388 E0.07416
G1 X-2.628 Y24.231 E2.45366
G1 X-2.628 Y25.122 E0.07416
G1 X-23.472 Y4.279 E2.45366
G1 X-23.472 Y5.170 E0.07416
G1 X-2.628 Y26.013 E2.45366
G1 X-2.628 Y26.904 E0.07416
G1 X-23.472 Y6.061 E2.45366
G1 X-23.472 Y6.952 E0.07416
G1 X-2.628 Y27.795 E2.45366
G1 X-2.628 Y28.686 E0.07416
G1 X-23.472 Y7.843 E2.45366
G1 X-23.472 Y8.734 E0.07416
G1 X-2.628 Y29.577 E2.45366
G1 X-2.675 Y30.422 E0.07041
G1 X-23.472 Y9.625 E2.44820
G1 X-23.472 Y10.516 E0.07416
G1 X-3.566 Y30.422 E2.34332
G1 X-4.457 Y30.422 E0.07416
G1 X-23.472 Y11.407 E2.23844
G1 X-23.472 Y12.298 E0.07416
G1 X-5.348 Y30.422 E2.13356
G1 X-6.239 Y30.422 E0.07416
G1 X-23.472 Y13.189 E2.02867
G1 X-23.472 Y14.079 E0.07416
G1 X-7.129 Y30.422 E1.92379
G1 X-8.020 Y30.422 E0.07416
G1 X-23.472 Y14.970 E1.81891
G1 X-23.472 Y15.861 E0.07416
G1 X-8.911 Y30.422 E1.71403
G1 X-9.802 Y30.422 E0.07416
G1 X-23.472 Y16.752 E1.60915
G1 X-23.472 Y17.643 E0.07416
G1 X-10.693 Y30.422 E1.50426
G1 X-11.584 Y30.422 E0.07416
G1 X-23.472 Y18.534 E1.39938
G1 X-23.472 Y19.425 E0.07416
G1 X-12.475 Y30.422 E1.29450
G1 X-13.366 Y30.422 E0.07416
G1 X-23.472 Y20.316 E1.18962
G1 X-23.472 Y21.207 E0.07416
G1 X-14.257 Y30.422 E1.08473
G1 X-15.148 Y30.422 E0.07416
G1 X-23.472 Y22.098 E0.97985
G1 X-23.472 Y22.989 E0.07416
G1 X-16.039 Y30.422 E0.87497
G1 X-16.930 Y30.422 E0.07416
G1 X-23.472 Y23.880 E0.77009
G1 X-23.472 Y24.771 E0.07416
G1 X-17.821 Y30.422 E0.66521
G1 X-18.712 Y30.422 E0.07416
G1 X-23.472 Y25.662 E0.56032
G1 X-23.472 Y26.553 E0.07416
G1 X-19.603 Y30.422 E0.45544
G1 X-20.494 Y30.422 E0.07416
G1 X-23.472 Y27.444 E0.35056
G1 X-23.472 Y28.335 E0.07416
G1 X-21.385 Y30.422 E0.24568
G1 X-22.276 Y30.422 E0.07416
G1 X-23.472 Y29.226 E0.14079
G1 X-23.472 Y30.117 E0.07416
G1 X-23.167 Y30.422 E0.03591
G1 E-3.20000 F3000.00000
G1 Z0.750 F15000.000
G1 X2.933 Y30.422 F15000.000
G1 Z0.350 F15000.000
G1 E3.20000 F3000.00000
G1 X2.628 Y30.117 E0.03591 F840.000
G1 X2.628 Y29.226 E0.07416
G1 X3.824 Y30.422 E0.14079
G1 X4.715 Y30.422 E0.07416
G1 X2.628 Y28.335 E0.24568
G1 X2.628 Y27.444 E0.07416
G1 X5.606 Y30.422 E0.35056
G1 X6.497 Y30.422 E0.07416
G1 X2.628 Y26.553 E0.45544
G1 X2.628 Y25.662 E0.07416
G1 X7.388 Y30.422 E0.56032
G1 X8.279 Y30.422 E0.07416
G1 X2.628 Y24.771 E0.66521
G1 X2.628 Y23.880 E0.07416
G1 X9.170 Y30.422 E0.77009
G1 X10.061 Y30.422 E0.07416
G1 X2.628 Y22.989 E0.87497
G1 X2.628 Y22.098 E0.07416
G1 X10.952 Y30.422 E0.97985
G1 X11.843 Y30.422 E0.07416
G1 X2.628 Y21.207 E1.08473
G1 X2.628 Y20.316 E0.07416
G1 X12.734 Y30.422 E1.18962
G1 X13.625 Y30.422 E0.07416
G1 X2.628 Y19.425 E1.29450
G1 X2.628 Y18.534 E0.07416
G1 X14.516 Y30.422 E1.39938
G1 X15.407 Y30.422 E0.07416
G1 X2.628 Y17.643 E1.50426
G1 X2.628 Y16.752 E0.07416
G1 X16.298 Y30.422 E1.60915
G1 X17.189 Y30.422 E0.07416
G1 X2.628 Y15.861 E1.71403
G1 X2.628 Y14.970 E0.07416
G1 X18.080 Y30.422 E1.81891
G1 X18.971 Y30.422 E0.07416
G1 X2.628 Y14.079 E1.92379
G1 X2.628 Y13.189 E0.07416
G1 X19.861 Y30.422 E2.02867
G1 X20.752 Y30.422 E0.07416
G1 X2.628 Y12.298 E2.13356
G1 X2.628 Y11.407 E0.07416
G1 X21.643 Y30.422 E2.23844
G1 X22.534 Y30.422 E0.07416
G1 X2.628 Y10.516 E2.34332
G1 X2.628 Y9.625 E0.07416
G1 X23.425 Y30.422 E2.44820
G1 X23.472 Y29.577 E0.07041
G1 X2.628 Y8.734 E2.45366
G1 X2.628 Y7.843 E0.07416
G1 X23.472 Y28.686 E2.45366
G1 X23.472 Y27.795 E0.07416
G1 X2.628 Y6.952 E2.45366
G1 X2.628 Y6.061 E0.07416
G1 X23.472 Y26.904 E2.45366
G1 X23.472 Y26.013 E0.07416
G1 X2.628 Y5.170 E2.45366
G1 X2.628 Y4.279 E0.07416
G1 X23.472 Y25.122 E2.45366
G1 X23.472 Y24.231 E0.07416
G1 X2.628 Y3.388 E2.45366
G1 X2.628 Y2.497 E0.07416
G1 X23.472 Y23.340 E2.45366
G1 X23.472 Y22.449 E0.07416
G1 X2.628 Y1.606 E2.45366
G1 X2.628 Y0.715 E0.07416
G1 X23.472 Y21.559 E2.45366
G1 X23.472 Y20.668 E0.07416
G1 X2.628 Y-0.176 E2.45366
G1 X2.628 Y-1.067 E0.07416
G1 X23.472 Y19.777 E2.45366
G1 X23.472 Y18.886 E0.07416
G1 X2.628 Y-1.958 E2.45366
G1 X2.628 Y-2.849 E0.07416
G1 X23.472 Y17.995 E2.45366
G1 X23.472 Y17.104 E0.07416
G1 X2.628 Y-3.740 E2.45366
G1 X2.628 Y-4.630 E0.07416
G1 X23.472 Y16.213 E2.45366
G1 X23.472 Y15.322 E0.07416
G1 X2.628 Y-5.521 E2.45366
G1 X2.628 Y-6.412 E0.07416
G1 X23.472 Y14.431 E2.45366
G1 X23.472 Y13.540 E0.07416
G1 X2.628 Y-7.303 E2.45366
G1 X2.628 Y-8.194 E0.07416
G1 X23.472 Y12.649 E2.45366
G1 X23.472 Y11.758 E0.07416
G1 X2.628 Y-9.085 E2.45366
G1 X2.628 Y-9.976 E0.07416
G1 X23.472 Y10.867 E2.45366
G1 X23.472 Y9.976 E0.07416
G1 X2.628 Y-10.867 E2.45366
G1 X2.628 Y-11.758 E0.07416
G1 X23.472 Y9.085 E2.45366
G1 X23.472 Y8.194 E0.07416
G1 X2.628 Y-12.649 E2.45366
G1 X2.628 Y-13.540 E0.07416
G1 X23.472 Y7.303 E2.45366
G1 X23.472 Y6.412 E0.07416
G1 X2.628 Y-14.431 E2.45366
G1 X2.628 Y-15.322 E0.07416
G1 X23.472 Y5.521 E2.45366
G1 X23.472 Y4.630 E0.07416
G1 X2.628 Y-16.213 E2.45366
G1 X2.628 Y-17.104 E0.07416
G1 X23.472 Y3.740 E2.45366
G1 X23.472 Y2.849 E0.07416
G1 X2.628 Y-17.995 E2.45366
G1 X2.628 Y-18.886 E0.07416
G1 X23.472 Y1.958 E2.45366
G1 X23.472 Y1.067 E0.07416
G1 X2.628 Y-19.777 E2.45366
G1 X2.628 Y-20.668 E0.07416
G1 X23.472 Y0.176 E2.45366
G1 X23.472 Y-0.715 E0.07416
G1 X2.628 Y-21.558 E2.45366
G1 X2.628 Y-22.449 E0.07416
G1 X23.472 Y-1.606 E2.45366
G1 X23.472 Y-2.497 E0.07416
G1 X2.628 Y-23.340 E2.45366
G1 X2.628 Y-24.231 E0.07416
G1 X23.472 Y-3.388 E2.45366
G1 X23.472 Y-4.279 E0.07416
G1 X2.628 Y-25.122 E2.45366
G1 X2.628 Y-26.013 E0.07416
G1 X23.472 Y-5.170 E2.45366
G1 X23.472 Y-6.061 E0.07416
G1 X2.628 Y-26.904 E2.45366
G1 X2.628 Y-27.795 E0.07416
G1 X23.472 Y-6.952 E2.45366
G1 X23.472 Y-7.843 E0.07416
G1 X2.628 Y-28.686 E2.45366
G1 X2.628 Y-29.577 E0.07416
G1 X23.472 Y-8.734 E2.45366
G1 X23.472 Y-9.625 E0.07416
G1 X2.675 Y-30.422 E2.44821
G1 X3.566 Y-30.422 E0.07416
G1 X23.472 Y-10.516 E2.34333
G1 X23.472 Y-11.407 E0.07416
G1 X4.457 Y-30.422 E2.23844
G1 X5.348 Y-30.422 E0.07416
G1 X23.472 Y-12.298 E2.13356
G1 X23.472 Y-13.188 E0.07416
G1 X6.238 Y-30.422 E2.02868
G1 X7.129 Y-30.422 E0.07416
G1 X23.472 Y-14.079 E1.92380
G1 X23.472 Y-14.970 E0.07416
G1 X8.020 Y-30.422 E1.81892
G1 X8.911 Y-30.422 E0.07416
G1 X23.472 Y-15.861 E1.71403
G1 X23.472 Y-16.752 E0.07416
G1 X9.802 Y-30.422 E1.60915
G1 X10.693 Y-30.422 E0.07416
G1 X23.472 Y-17.643 E1.50427
G1 X23.472 Y-18.534 E0.07416
G1 X11.584 Y-30.422 E1.39939
G1 X12.475 Y-30.422 E0.07416
G1 X23.472 Y-19.425 E1.29450
G1 X23.472 Y-20.316 E0.07416
G1 X13.366 Y-30.422 E1.18962
G1 X14.257 Y-30.422 E0.07416
G1 X23.472 Y-21.207 E1.08474
G1 X23.472 Y-22.098 E0.07416
G1 X15.148 Y-30.422 E0.97986
G1 X16.039 Y-30.422 E0.07416
G1 X23.472 Y-22.989 E0.87498
G1 X23.472 Y-23.880 E0.07416
G1 X16.930 Y-30.422 E0.77009
G1 X17.821 Y-30.422 E0.07416
G1 X23.472 Y-24.771 E0.66521
G1 X23.472 Y-25.662 E0.07416
G1 X18.712 Y-30.422 E0.56033
G1 X19.603 Y-30.422 E0.07416
G1 X23.472 Y-26.553 E0.45545
G1 X23.472 Y-27.444 E0.07416
G1 X20.494 Y-30.422 E0.35057
G1 X21.385 Y-30.422 E0.07416
G1 X23.472 Y-28.335 E0.24568
G1 X23.472 Y-29.226 E0.07416
G1 X22.276 Y-30.422 E0.14080
G1 X23.167 Y-30.422 E0.07416
G1 X23.472 Y-30.117 E0.03592
G1 E-3.20000 F3000.00000
G1 Z0.750 F15000.000
G1 X0.850 Y-31.700 F15000.000
G1 Z0.650 F15000.000
G1 E3.20000 F3000.00000
G1 X0.850 Y31.700 E2.40982 F4200.000
G1 X-0.850 Y31.700 E0.06462
G1 X-0.850 Y-31.700 E2.40982
G1 X0.790 Y-31.700 E0.06234
G1 X1.250 Y-31.700 F15000.000
G1 X-1.521 Y-31.529 F15000.000
G1 X-1.521 Y31.529 E2.39681 F4200.000
G1 X-24.579 Y31.529 E0.87641
G1 X-24.579 Y-31.529 E2.39681
G1 X-1.581 Y-31.529 E0.87413
G1 X-1.186 Y-31.864 F15000.000
G1 X-1.186 Y31.864 E2.42232 F4200.000
G1 X-24.914 Y31.864 E0.90193
G1 X-24.914 Y-31.864 E2.42232
G1 X-1.246 Y-31.864 E0.89965
G1 X1.521 Y-31.529 F15000.000
G1 X24.579 Y-31.529 E0.87641 F4200.000
G1 X24.579 Y31.529 E2.39681
G1 X1.521 Y31.529 E0.87641
G1 X1.521 Y-31.469 E2.39453
G1 X1.186 Y-31.864 F15000.000
G1 X24.914 Y-31.864 E0.90193 F4200.000
G1 X24.914 Y31.864 E2.42232
G1 X1.186 Y31.864 E0.90193
G1 X1.186 Y-31.804 E2.42004
G1 X25.250 Y-32.200 F15000.000
G1 X25.250 Y32.200 E2.44783 F4200.000
G1 X-25.250 Y32.200 E1.91950
G1 X-25.250 Y-32.200 E2.44783
G1 X25.190 Y-32.200 E1.91722
G1 X25.050 Y-31.854 F15000.000
G1 X1.715 Y-31.152 F15000.000
G1 X1.898 Y-31.335 E0.00980 F4200.000
G1 X2.372 Y-31.335 E0.01805
G1 X1.715 Y-30.678 E0.03532
G1 X1.715 Y-30.203 E0.01805
G1 X2.847 Y-31.335 E0.06084
G1 X3.322 Y-31.335 E0.01805
G1 X1.715 Y-29.728 E0.08637
G1 X1.715 Y-29.254 E0.01805
G1 X3.796 Y-31.335 E0.11189
G1 X4.271 Y-31.335 E0.01805
G1 X1.715 Y-28.779 E0.13741
G1 X1.715 Y-28.304 E0.01805
G1 X4.746 Y-31.335 E0.16293
G1 X5.221 Y-31.335 E0.01805
G1 X1.715 Y-27.829 E0.18845
G1 X1.715 Y-27.355 E0.01805
G1 X5.695 Y-31.335 E0.21398
G1 X6.170 Y-31.335 E0.01805
G1 X1.715 Y-26.880 E0.23950
G1 X1.715 Y-26.405 E0.01805
G1 X6.645 Y-31.335 E0.26502
G1 X7.119 Y-31.335 E0.01805
G1 X1.715 Y-25.931 E0.29054
G1 X1.715 Y-25.456 E0.01805
G1 X7.594 Y-31.335 E0.31606
G1 X8.069 Y-31.335 E0.01805
G1 X1.715 Y-24.981 E0.34159
G1 X1.715 Y-24.506 E0.01805
G1 X8.544 Y-31.335 E0.36711
G1 X9.018 Y-31.335 E0.01805
G1 X1.715 Y-24.032 E0.39263
G1 X1.715 Y-23.557 E0.01805
G1 X9.493 Y-31.335 E0.41815
G1 X9.968 Y-31.335 E0.01805
G1 X1.715 Y-23.082 E0.44368
G1 X1.715 Y-22.608 E0.01805
G1 X10.442 Y-31.335 E0.46920
G1 X10.917 Y-31.335 E0.01805
G1 X1.715 Y-22.133 E0.49472
G1 X1.715 Y-21.658 E0.01805
G1 X11.392 Y-31.335 E0.52024
G1 X11.867 Y-31.335 E0.01805
G1 X1.715 Y-21.183 E0.54576
G1 X1.715 Y-20.709 E0.01805
G1 X12.341 Y-31.335 E0.57129
G1 X12.816 Y-31.335 E0.01805
G1 X1.715 Y-20.234 E0.59681
G1 X1.715 Y-19.759 E0.01805
G1 X13.291 Y-31.335 E0.62233
G1 X13.765 Y-31.335 E0.01805
G1 X1.715 Y-19.285 E0.64785
G1 X1.715 Y-18.810 E0.01805
G1 X14.240 Y-31.335 E0.67337
G1 X14.715 Y-31.335 E0.01805
G1 X1.715 Y-18.335 E0.69890
G1 X1.715 Y-17.860 E0.01805
G1 X15.190 Y-31.335 E0.72442
G1 X15.664 Y-31.335 E0.01805
G1 X1.715 Y-17.386 E0.74994
G1 X1.715 Y-16.911 E0.01805
G1 X16.139 Y-31.335 E0.77546
G1 X16.614 Y-31.335 E0.01805
G1 X1.715 Y-16.436 E0.80098
G1 X1.715 Y-15.962 E0.01805
G1 X17.088 Y-31.335 E0.82651
G1 X17.563 Y-31.335 E0.01805
G1 X1.715 Y-15.487 E0.85203
G1 X1.715 Y-15.012 E0.01805
G1 X18.038 Y-31.335 E0.87755
G1 X18.513 Y-31.335 E0.01805
G1 X1.715 Y-14.537 E0.90307
G1 X1.715 Y-14.063 E0.01805
G1 X18.987 Y-31.335 E0.92860
G1 X19.462 Y-31.335 E0.01805
